; G-Code generated by Simplify3D(R) Version 3.0.2
; Apr 28, 2017 at 5:15:06 PM
; Settings Summary
;   processName,Process1
;   applyToModels,tbhub-sg21-20mm,tbhub-sg21-20mm(2),tbhub-sg21-20mm(3),tbhub-sg21-20mm(4)
;   profileName,FlashForge Creator Pro (modified)
;   profileVersion,2015-05-01 08:00:00
;   baseProfile,
;   printMaterial,PLA
;   printQuality,Medium
;   printExtruders,Right Extruder Only
;   extruderName,Right Extruder,Left Extruder
;   extruderToolheadNumber,0,1
;   extruderDiameter,0.4,0.4
;   extruderAutoWidth,0,0
;   extruderWidth,0.4,0.4
;   extrusionMultiplier,1,0.95
;   extruderUseRetract,1,1
;   extruderRetractionDistance,1,1
;   extruderExtraRestartDistance,0,0
;   extruderRetractionZLift,0,0
;   extruderRetractionSpeed,1200,1200
;   extruderUseCoasting,0,0
;   extruderCoastingDistance,0.2,0.2
;   extruderUseWipe,0,0
;   extruderWipeDistance,5,5
;   primaryExtruder,0
;   layerHeight,0.2
;   topSolidLayers,3
;   bottomSolidLayers,3
;   perimeterOutlines,3
;   printPerimetersInsideOut,1
;   startPointOption,2
;   startPointOriginX,0
;   startPointOriginY,0
;   startPointOriginZ,300
;   sequentialIslands,0
;   spiralVaseMode,0
;   firstLayerHeightPercentage,90
;   firstLayerWidthPercentage,100
;   firstLayerUnderspeed,0.5
;   useRaft,0
;   raftExtruder,0
;   raftLayers,3
;   raftOffset,3
;   raftSeparationDistance,0.14
;   raftInfill,85
;   disableRaftBaseLayers,0
;   useSkirt,1
;   skirtExtruder,0
;   skirtLayers,1
;   skirtOutlines,2
;   skirtOffset,4
;   usePrimePillar,0
;   primePillarExtruder,999
;   primePillarWidth,12
;   primePillarLocation,7
;   primePillarSpeedMultiplier,1
;   useOozeShield,0
;   oozeShieldExtruder,999
;   oozeShieldOffset,2
;   oozeShieldOutlines,1
;   oozeShieldSidewallShape,1
;   oozeShieldSidewallAngle,30
;   oozeShieldSpeedMultiplier,1
;   infillExtruder,0
;   internalInfillPattern,Rectilinear
;   externalInfillPattern,Rectilinear
;   infillPercentage,10
;   outlineOverlapPercentage,20
;   infillExtrusionWidthPercentage,100
;   minInfillLength,5
;   infillLayerInterval,1
;   infillAngles,45,-45
;   overlapInfillAngles,0
;   generateSupport,0
;   supportExtruder,0
;   supportInfillPercentage,30
;   supportExtraInflation,0
;   denseSupportLayers,1
;   denseSupportInfillPercentage,70
;   supportLayerInterval,1
;   supportHorizontalPartOffset,0.3
;   supportUpperSeparationLayers,1
;   supportLowerSeparationLayers,1
;   supportType,1
;   supportGridSpacing,4
;   maxOverhangAngle,40
;   supportAngles,0
;   temperatureName,Right Extruder,Left Extruder,Heated Build Platform
;   temperatureNumber,0,1,0
;   temperatureSetpointCount,1,1,1
;   temperatureSetpointLayers,1,1,1
;   temperatureSetpointTemperatures,215,0,60
;   temperatureStabilizeAtStartup,0,0,0
;   temperatureHeatedBed,0,0,1
;   temperatureRelayBetweenLayers,0,0,0
;   temperatureRelayBetweenLoops,0,0,0
;   fanLayers,1,2
;   fanSpeeds,0,100
;   blipFanToFullPower,0
;   adjustSpeedForCooling,1
;   minSpeedLayerTime,15
;   minCoolingSpeedSlowdown,20
;   increaseFanForCooling,0
;   minFanLayerTime,45
;   maxCoolingFanSpeed,100
;   increaseFanForBridging,1
;   bridgingFanSpeed,100
;   use5D,1
;   relativeEdistances,1
;   allowEaxisZeroing,0
;   independentExtruderAxes,1
;   includeM10123,0
;   stickySupport,1
;   applyToolheadOffsets,0
;   gcodeXoffset,0
;   gcodeYoffset,0
;   gcodeZoffset,0
;   overrideMachineDefinition,1
;   machineTypeOverride,0
;   strokeXoverride,225
;   strokeYoverride,145
;   strokeZoverride,150
;   originOffsetXoverride,112.5
;   originOffsetYoverride,72.5
;   originOffsetZoverride,0
;   homeXdirOverride,1
;   homeYdirOverride,1
;   homeZdirOverride,-1
;   flipXoverride,1
;   flipYoverride,-1
;   flipZoverride,1
;   toolheadOffsets,0,0|34,0|0,0|0,0|0,0|0,0
;   overrideFirmwareConfiguration,1
;   firmwareTypeOverride,MakerBot/Sailfish Firmware
;   GPXconfigOverride,r1d
;   baudRateOverride,115200
;   overridePrinterModels,1
;   printerModelsOverride,FlashForge_CreatorPro.stl
;   startingGcode,; **** Replicator 1 dual start.gcode ****,M73 P0 ; enable build progress,G162 X Y F3000 ; home XY maximum,G161 Z F1200 ; home Z minimum,G92 Z-5 ; set Z to -5,G1 Z0 ; move Z to 0,G161 Z F100 ; home Z slowly,M132 X Y Z A B ; recall home offsets,M135 T0 ; load right extruder offsets,G1 X150 Y-70 Z30 F9000 ; move to wait position right hand side of the table,G130 X20 Y20 Z20 A20 B20 ; lower stepper Vrefs while heating,M126 S[fan_speed_pwm],M140 S[bed0_temperature] T0,M134 T0 ; stabilize bed temperature,M104 S[extruder0_temperature] T0,M133 T0 ; stabilize right extruder temperature,G130 X127 Y127 Z40 A127 B127 ; default stepper Vrefs,G92 A0 B0 ; zero extruders,G1 Z0.4 ; position nozzle,G1 X110 Y-70 E25 F300 ; purge nozzle,G1 X120 Y-70 Z0.15 F1200 ; slow wipe,G1 X110 Y-70 Z0.5 F1200 ; lift,G92 A0 B0 ; zero extruders,M73 P1 ;@body (notify GPX body has started),; **** end of start.gcode ****
;   layerChangeGcode,
;   retractionGcode,
;   toolChangeGcode,
;   endingGcode,; **** Replicator 1 dual end.gcode ****,M73 P100 ; end build progress,G1 Z150 F1000 ; send Z axis to bottom of machine,M140 S0 T0 ; cool down HBP,M104 S0 T0 ; cool down right extruder,M104 S0 T1 ; cool down left extruder,M127 ; stop blower fan,G162 X Y F3000 ; home XY maximum,M18 ; disable stepper,M72 P1 ; play Ta-Da song,; **** end of end.gcode ****
;   createX3G,1
;   celebration,0
;   celebrationSong,Random Song
;   createMB5G,0
;   postProcessing,
;   defaultSpeed,3600
;   outlineUnderspeed,0.5
;   solidInfillUnderspeed,0.8
;   supportUnderspeed,0.8
;   rapidXYspeed,4200
;   rapidZspeed,1200
;   minBridgingArea,50
;   bridgingExtraInflation,0
;   bridgingExtrusionMultiplier,1
;   bridgingSpeedMultiplier,0.8
;   filamentDiameter,1.75
;   filamentPricePerKg,46
;   filamentDensity,1.25
;   useMinPrintHeight,0
;   minPrintHeight,0
;   useMaxPrintHeight,0
;   maxPrintHeight,0
;   useDiaphragm,0
;   diaphragmLayerInterval,20
;   robustSlicing,1
;   mergeAllIntoSolid,0
;   onlyRetractWhenCrossingOutline,1
;   retractBetweenLayers,1
;   useRetractionMinTravel,0
;   retractionMinTravel,3
;   retractWhileWiping,0
;   onlyWipeOutlines,1
;   avoidCrossingOutline,0
;   maxMovementDetourFactor,3
;   toolChangeRetractionDistance,12
;   toolChangeExtraRestartDistance,-0.5
;   toolChangeRetractionSpeed,600
;   allowThinWallGapFill,1
;   thinWallAllowedOverlapPercentage,10
;   horizontalSizeCompensation,0
G90
M83
; **** Replicator 1 dual start.gcode ****
M73 P0 ; enable build progress
G162 X Y F3000 ; home XY maximum
G161 Z F1200 ; home Z minimum
G92 Z-5 ; set Z to -5
G1 Z0 ; move Z to 0
G161 Z F100 ; home Z slowly
M132 X Y Z A B ; recall home offsets
M135 T0 ; load right extruder offsets
G1 X150 Y-70 Z30 F9000 ; move to wait position right hand side of the table
G130 X20 Y20 Z20 A20 B20 ; lower stepper Vrefs while heating
M127
M140 S60 T0
M134 T0 ; stabilize bed temperature
M104 S215 T0
M133 T0 ; stabilize right extruder temperature
G130 X127 Y127 Z40 A127 B127 ; default stepper Vrefs
G92 A0 B0 ; zero extruders
G1 Z0.4 ; position nozzle
G1 X110 Y-70 E25 F300 ; purge nozzle
G1 X120 Y-70 Z0.15 F1200 ; slow wipe
G1 X110 Y-70 Z0.5 F1200 ; lift
G92 A0 B0 ; zero extruders
M73 P1 ;@body (notify GPX body has started)
; **** end of start.gcode ****
G1 E-1.0000 F1200
G1 Z0.180 F1200
; layer 1, Z = 0.18
M135 T0
; tool H0.200 W0.400
; skirt
G1 X32.559 Y0.073 F4200
G1 E1.0000 F360
G1 X32.573 Y0.079 E0.0005 F1800
G1 X33.983 Y0.798 E0.0526
G1 X34.209 Y0.837 E0.0076
G1 X34.753 Y1.190 E0.0216
G1 X35.332 Y1.485 E0.0216
G1 X35.479 Y1.661 E0.0076
G1 X36.806 Y2.523 E0.0526
G1 X36.819 Y2.532 E0.0005
G1 X37.001 Y2.664 E0.0075
G1 X37.013 Y2.674 E0.0005
G1 X38.815 Y4.133 E0.0771
G1 X38.827 Y4.143 E0.0005
G1 X38.994 Y4.294 E0.0075
G1 X39.006 Y4.305 E0.0005
G1 X40.645 Y5.944 E0.0771
G1 X40.656 Y5.956 E0.0005
G1 X40.807 Y6.123 E0.0075
G1 X40.817 Y6.135 E0.0005
G1 X42.276 Y7.937 E0.0771
G1 X42.286 Y7.949 E0.0005
G1 X42.418 Y8.132 E0.0075
G1 X42.427 Y8.144 E0.0005
G1 X43.690 Y10.089 E0.0771
G1 X43.698 Y10.102 E0.0005
G1 X43.811 Y10.298 E0.0075
G1 X43.818 Y10.311 E0.0005
G1 X44.871 Y12.377 E0.0771
G1 X44.878 Y12.391 E0.0005
G1 X44.969 Y12.597 E0.0075
G1 X44.975 Y12.612 E0.0005
G1 X45.806 Y14.776 E0.0771
G1 X45.811 Y14.791 E0.0005
G1 X45.881 Y15.005 E0.0075
G1 X45.885 Y15.020 E0.0005
G1 X46.486 Y17.260 E0.0771
G1 X46.489 Y17.275 E0.0005
G1 X46.536 Y17.496 E0.0075
G1 X46.539 Y17.511 E0.0005
G1 X46.902 Y19.801 E0.0771
G1 X46.904 Y19.817 E0.0005
G1 X46.927 Y20.041 E0.0075
G1 X46.928 Y20.056 E0.0005
G1 X47.011 Y21.636 E0.0526
G1 X47.091 Y21.851 E0.0076
G1 X47.057 Y22.500 E0.0216
G1 X47.091 Y23.149 E0.0216
G1 X47.011 Y23.364 E0.0076
G1 X46.928 Y24.944 E0.0526
G1 X46.927 Y24.959 E0.0005
G1 X46.904 Y25.183 E0.0075
G1 X46.902 Y25.199 E0.0005
G1 X46.539 Y27.489 E0.0771
G1 X46.536 Y27.504 E0.0005
G1 X46.489 Y27.725 E0.0075
G1 X46.486 Y27.740 E0.0005
G1 X45.885 Y29.980 E0.0771
G1 X45.881 Y29.995 E0.0005
G1 X45.811 Y30.209 E0.0075
G1 X45.806 Y30.224 E0.0005
G1 X44.975 Y32.388 E0.0771
G1 X44.969 Y32.403 E0.0005
G1 X44.878 Y32.609 E0.0075
G1 X44.871 Y32.623 E0.0005
G1 X43.818 Y34.689 E0.0771
G1 X43.811 Y34.702 E0.0005
G1 X43.698 Y34.898 E0.0075
G1 X43.690 Y34.911 E0.0005
G1 X42.427 Y36.855 E0.0771
G1 X42.418 Y36.868 E0.0005
G1 X42.286 Y37.051 E0.0075
G1 X42.276 Y37.063 E0.0005
G1 X40.817 Y38.865 E0.0771
G1 X40.807 Y38.877 E0.0005
G1 X40.656 Y39.044 E0.0075
G1 X40.645 Y39.056 E0.0005
G1 X39.006 Y40.695 E0.0771
G1 X38.994 Y40.706 E0.0005
G1 X38.827 Y40.857 E0.0075
G1 X38.815 Y40.867 E0.0005
G1 X37.013 Y42.326 E0.0771
G1 X37.001 Y42.336 E0.0005
G1 X36.819 Y42.468 E0.0075
G1 X36.806 Y42.477 E0.0005
G1 X35.479 Y43.339 E0.0526
G1 X35.332 Y43.515 E0.0076
G1 X34.753 Y43.810 E0.0216
G1 X34.209 Y44.163 E0.0216
G1 X33.983 Y44.202 E0.0076
G1 X32.573 Y44.921 E0.0526
G1 X32.559 Y44.927 E0.0005
G1 X32.353 Y45.019 E0.0075
G1 X32.338 Y45.025 E0.0005
G1 X30.174 Y45.856 E0.0771
G1 X30.159 Y45.861 E0.0005
G1 X29.945 Y45.931 E0.0075
G1 X29.930 Y45.935 E0.0005
G1 X27.690 Y46.535 E0.0771
G1 X27.675 Y46.539 E0.0005
G1 X27.455 Y46.586 E0.0075
G1 X27.439 Y46.589 E0.0005
G1 X25.149 Y46.951 E0.0771
G1 X25.133 Y46.953 E0.0005
G1 X24.910 Y46.977 E0.0075
G1 X24.894 Y46.978 E0.0005
G1 X22.579 Y47.100 E0.0771
G1 X22.563 Y47.100 E0.0005
G1 X22.338 Y47.100 E0.0075
G1 X22.322 Y47.100 E0.0005
G1 X20.006 Y46.978 E0.0771
G1 X19.991 Y46.977 E0.0005
G1 X19.767 Y46.953 E0.0075
G1 X19.751 Y46.951 E0.0005
G1 X17.461 Y46.589 E0.0771
G1 X17.446 Y46.586 E0.0005
G1 X17.225 Y46.539 E0.0075
G1 X17.210 Y46.535 E0.0005
G1 X14.970 Y45.935 E0.0771
G1 X14.955 Y45.931 E0.0005
G1 X14.741 Y45.861 E0.0075
G1 X14.726 Y45.856 E0.0005
G1 X12.562 Y45.025 E0.0771
G1 X12.547 Y45.019 E0.0005
G1 X12.342 Y44.927 E0.0075
G1 X12.327 Y44.921 E0.0005
G1 X10.917 Y44.202 E0.0526
G1 X10.692 Y44.163 E0.0076
G1 X10.147 Y43.810 E0.0216
G1 X9.568 Y43.515 E0.0216
G1 X9.422 Y43.339 E0.0076
G1 X8.095 Y42.477 E0.0526
G1 X8.082 Y42.468 E0.0005
G1 X7.900 Y42.336 E0.0075
G1 X7.887 Y42.326 E0.0005
G1 X6.085 Y40.867 E0.0771
G1 X6.073 Y40.857 E0.0005
G1 X5.906 Y40.706 E0.0075
G1 X5.895 Y40.695 E0.0005
G1 X4.255 Y39.056 E0.0771
G1 X4.244 Y39.044 E0.0005
G1 X4.093 Y38.877 E0.0075
G1 X4.083 Y38.865 E0.0005
G1 X2.624 Y37.063 E0.0771
G1 X2.615 Y37.051 E0.0005
G1 X2.482 Y36.868 E0.0075
G1 X2.473 Y36.855 E0.0005
G1 X1.211 Y34.911 E0.0771
G1 X1.202 Y34.898 E0.0005
G1 X1.090 Y34.703 E0.0075
G1 X1.082 Y34.689 E0.0005
G1 X0.030 Y32.623 E0.0771
G1 X0.023 Y32.609 E0.0005
G1 X0.000 Y32.557 E0.0019
G1 X-0.023 Y32.609 E0.0019
G1 X-0.030 Y32.623 E0.0005
G1 X-1.082 Y34.689 E0.0771
G1 X-1.090 Y34.703 E0.0005
G1 X-1.202 Y34.898 E0.0075
G1 X-1.211 Y34.911 E0.0005
G1 X-2.473 Y36.855 E0.0771
G1 X-2.482 Y36.868 E0.0005
G1 X-2.615 Y37.051 E0.0075
G1 X-2.624 Y37.063 E0.0005
G1 X-4.083 Y38.865 E0.0771
G1 X-4.093 Y38.877 E0.0005
G1 X-4.244 Y39.044 E0.0075
G1 X-4.255 Y39.056 E0.0005
G1 X-5.895 Y40.695 E0.0771
G1 X-5.906 Y40.706 E0.0005
G1 X-6.073 Y40.857 E0.0075
G1 X-6.085 Y40.867 E0.0005
G1 X-7.887 Y42.326 E0.0771
G1 X-7.900 Y42.336 E0.0005
G1 X-8.082 Y42.468 E0.0075
G1 X-8.095 Y42.477 E0.0005
G1 X-9.422 Y43.339 E0.0526
G1 X-9.568 Y43.515 E0.0076
G1 X-10.147 Y43.810 E0.0216
G1 X-10.692 Y44.163 E0.0216
G1 X-10.918 Y44.202 E0.0076
G1 X-12.327 Y44.921 E0.0526
G1 X-12.342 Y44.927 E0.0005
G1 X-12.547 Y45.019 E0.0075
G1 X-12.562 Y45.025 E0.0005
G1 X-14.726 Y45.856 E0.0771
G1 X-14.741 Y45.861 E0.0005
G1 X-14.955 Y45.931 E0.0075
G1 X-14.970 Y45.935 E0.0005
G1 X-17.210 Y46.535 E0.0771
G1 X-17.225 Y46.539 E0.0005
G1 X-17.446 Y46.586 E0.0075
G1 X-17.461 Y46.589 E0.0005
G1 X-19.751 Y46.951 E0.0771
G1 X-19.767 Y46.953 E0.0005
G1 X-19.991 Y46.977 E0.0075
G1 X-20.006 Y46.978 E0.0005
G1 X-22.322 Y47.100 E0.0771
G1 X-22.338 Y47.100 E0.0005
G1 X-22.563 Y47.100 E0.0075
G1 X-22.579 Y47.100 E0.0005
G1 X-24.894 Y46.978 E0.0771
G1 X-24.910 Y46.977 E0.0005
G1 X-25.133 Y46.953 E0.0075
G1 X-25.149 Y46.951 E0.0005
G1 X-27.439 Y46.589 E0.0771
G1 X-27.455 Y46.586 E0.0005
G1 X-27.675 Y46.539 E0.0075
G1 X-27.690 Y46.535 E0.0005
G1 X-29.930 Y45.935 E0.0771
G1 X-29.945 Y45.931 E0.0005
G1 X-30.159 Y45.861 E0.0075
G1 X-30.174 Y45.856 E0.0005
G1 X-32.338 Y45.025 E0.0771
G1 X-32.353 Y45.019 E0.0005
G1 X-32.559 Y44.927 E0.0075
G1 X-32.573 Y44.921 E0.0005
G1 X-33.983 Y44.202 E0.0526
G1 X-34.209 Y44.163 E0.0076
G1 X-34.753 Y43.810 E0.0216
G1 X-35.332 Y43.515 E0.0216
G1 X-35.479 Y43.339 E0.0076
G1 X-36.806 Y42.477 E0.0526
G1 X-36.819 Y42.468 E0.0005
G1 X-37.001 Y42.336 E0.0075
G1 X-37.013 Y42.326 E0.0005
G1 X-38.815 Y40.867 E0.0771
G1 X-38.827 Y40.857 E0.0005
G1 X-38.994 Y40.706 E0.0075
G1 X-39.006 Y40.695 E0.0005
G1 X-40.645 Y39.056 E0.0771
G1 X-40.656 Y39.044 E0.0005
G1 X-40.807 Y38.877 E0.0075
G1 X-40.817 Y38.865 E0.0005
G1 X-42.276 Y37.063 E0.0771
G1 X-42.286 Y37.051 E0.0005
G1 X-42.418 Y36.868 E0.0075
G1 X-42.427 Y36.855 E0.0005
G1 X-43.690 Y34.911 E0.0771
G1 X-43.698 Y34.898 E0.0005
G1 X-43.811 Y34.703 E0.0075
G1 X-43.818 Y34.689 E0.0005
G1 X-44.871 Y32.623 E0.0771
G1 X-44.878 Y32.609 E0.0005
G1 X-44.969 Y32.403 E0.0075
G1 X-44.975 Y32.388 E0.0005
G1 X-45.806 Y30.224 E0.0771
G1 X-45.811 Y30.209 E0.0005
G1 X-45.881 Y29.995 E0.0075
G1 X-45.885 Y29.980 E0.0005
G1 X-46.486 Y27.740 E0.0771
G1 X-46.489 Y27.725 E0.0005
G1 X-46.536 Y27.504 E0.0075
G1 X-46.539 Y27.489 E0.0005
G1 X-46.902 Y25.199 E0.0771
G1 X-46.904 Y25.183 E0.0005
G1 X-46.927 Y24.959 E0.0075
G1 X-46.928 Y24.944 E0.0005
G1 X-47.011 Y23.364 E0.0526
G1 X-47.091 Y23.149 E0.0076
G1 X-47.057 Y22.500 E0.0216
G1 X-47.091 Y21.851 E0.0216
G1 X-47.011 Y21.636 E0.0076
G1 X-46.928 Y20.056 E0.0526
G1 X-46.927 Y20.041 E0.0005
G1 X-46.904 Y19.817 E0.0075
G1 X-46.902 Y19.801 E0.0005
G1 X-46.539 Y17.511 E0.0771
G1 X-46.536 Y17.496 E0.0005
G1 X-46.489 Y17.275 E0.0075
G1 X-46.486 Y17.260 E0.0005
G1 X-45.885 Y15.020 E0.0771
G1 X-45.881 Y15.005 E0.0005
G1 X-45.811 Y14.791 E0.0075
G1 X-45.806 Y14.776 E0.0005
G1 X-44.975 Y12.612 E0.0771
G1 X-44.969 Y12.597 E0.0005
G1 X-44.878 Y12.391 E0.0075
G1 X-44.871 Y12.377 E0.0005
G1 X-43.818 Y10.311 E0.0771
G1 X-43.811 Y10.298 E0.0005
G1 X-43.698 Y10.102 E0.0075
G1 X-43.690 Y10.089 E0.0005
G1 X-42.427 Y8.145 E0.0771
G1 X-42.418 Y8.132 E0.0005
G1 X-42.286 Y7.949 E0.0075
G1 X-42.276 Y7.937 E0.0005
G1 X-40.817 Y6.135 E0.0771
G1 X-40.807 Y6.123 E0.0005
G1 X-40.656 Y5.956 E0.0075
G1 X-40.645 Y5.944 E0.0005
G1 X-39.006 Y4.305 E0.0771
G1 X-38.994 Y4.294 E0.0005
G1 X-38.827 Y4.143 E0.0075
G1 X-38.815 Y4.133 E0.0005
G1 X-37.013 Y2.674 E0.0771
G1 X-37.001 Y2.664 E0.0005
G1 X-36.819 Y2.532 E0.0075
G1 X-36.806 Y2.523 E0.0005
G1 X-35.479 Y1.661 E0.0526
G1 X-35.332 Y1.485 E0.0076
G1 X-34.754 Y1.190 E0.0216
G1 X-34.209 Y0.836 E0.0216
G1 X-33.983 Y0.798 E0.0076
G1 X-32.573 Y0.079 E0.0526
G1 X-32.559 Y0.073 E0.0005
G1 X-32.396 Y0.000 E0.0059
G1 X-32.559 Y-0.073 E0.0059
G1 X-32.573 Y-0.079 E0.0005
G1 X-33.983 Y-0.798 E0.0526
G1 X-34.209 Y-0.836 E0.0076
G1 X-34.753 Y-1.190 E0.0216
G1 X-35.332 Y-1.485 E0.0216
G1 X-35.479 Y-1.661 E0.0076
G1 X-36.806 Y-2.523 E0.0526
G1 X-36.819 Y-2.532 E0.0005
G1 X-37.001 Y-2.664 E0.0075
G1 X-37.013 Y-2.674 E0.0005
G1 X-38.815 Y-4.133 E0.0771
